X:1
T:An einem guten orte
T:Antonio Brunelli
T:Notes : Source : Tricinia---Johann-Jacob Gastoldi und anderer Autorn---Nürnberg---P.Kauffmann-1607. Editor : André Vierendeels (16/03/17).
T:Notes : Original clefs : C1, C1, F4 Text Middle German by Valentin Hauszmann Sub-heading : from "Affettuoso Invaghito" 
T:An einem guten orte
T:©
T:©
C:Antonio Brunelli
Z:©
%%score [ 1 2 3 ]
L:1/8
Q:1/4=120
M:4/4
K:C
V:1 treble nm="Soprano 1" snm="S 1"
V:2 treble nm="Soprano 2" snm="S 2"
V:3 bass nm="Bass" snm="B"
V:1
 z4 z2 d2 | B2 c2 d2 B2 | A4 G4 | B4 B3 B | e2 d2 B4 |[M:2/4] A4 ::[M:4/4] e2 dc d2 cB | %7
w: An|ei- nem gu- ten|or- te,|weisz ich ein|schö- nen Gar-|ten,|da scheint mir offt _ _|
w: Da-|hin ich al- le|ta- ge,|ein klei- nes|gaäng- lein wa-|ge,|mein fei- nes Lieb zu _|
 c2 BA BAGA | Bc d2 c B2 A | B3 A/G/ AAAB | c4 z BBc | d6 B2 | A4 !fermata!G4 :| %13
w: |* * * die Son- *|* * * ne, da pfleg ich|stetts, zu su- chen|freud und|won- ne.|
w: se- * * * * * *||* * * hen, ich thu zu|ihr hin- ein in|Gar- ten|ge- hen.|
V:2
 d4 c2 A2 | G4 ^F2 G2- | G2 ^F2 G4 | G4 ^G3 G | A2 B2 ^G4 |[M:2/4] A4 ::[M:4/4] G4 G2 G2 | %7
w: An ei- nem|gu- ten or-|* * te,|weisz ich ein|schö- nen Gar-|ten,|da scheint mir|
w: Solchs ist ihr|nicht zu wi-|* * der,|den Platz hat|nicht ein fe-|der,|die Blüm- lein|
 E4 D2 BA | GABA G4- | G4 ^F4 | z EE^F G4 | z DDE ^F2 G2- | G2 ^F2 !fermata!G4 :| %13
w: offt die Son- *||* ne,|da pfleg ich stetts,|zu su- chen freud und|_ won- ne.|
w: zart wir bre- *||* chen,|manch freun- lich wort|ein- an- der auch zu|_ spre- chen.|
V:3
 G,4 A,2 ^F,2 | G,2 E,2 D,4- | D,4 G,,4 | G,4 E,3 E, | ^C,2 D,2 E,4 |[M:2/4] A,,4 :: %6
w: An ei- nem|gu- ten or-|* te,|weisz ich ein|scö- nen Gar-|ten,|
w: O se- ligs|Pa- ra dei-|* se,|dich rhüm ich|und dich prei-|se,|
[M:4/4] C2 B,A, B,2 A,G, | A,2 G,F, G,4 | G,4 E,4- | E,4 D,4 | z C,C,D, E,4 | z B,,B,,C, D,3 D, | %12
w: da scheint mir offt _ _|_ _ _ _|die Son-|* ne,|da pfleg ich stetts|zu su- chen freud und|
w: wie hast du mir _ _|_ _ _ _|mein Hert-|* ze,|so offt er- getzt|mit schimpff und auch mii|
 D,4 !fermata!G,,4 :| %13
w: won- ne.|
w: scher- tze.|

